COLOR/action 16/16/go-up.svg

<svg height="16" width="16" xmlns="http://www.w3.org/2000/svg"><path d="m8 5.3515625-.2070312.0917969c-.5257851.2373224-1.2887385.5500131-2.0371094.9785156v.00195c-.8258956.474509-1.6328116.9792359-2.4199219 1.5156281-.7609667.5157664-1.4921137 1.1027416-2.2070313 1.6679688l-1.1289062.8925781h2.8300781l.1347657-.103516c.4381001-.334428.8718899-.6863582 1.3105468-.9863278.5712284-.3910099 1.1574492-.7568523 1.7558594-1.1015624.6436512-.360414 1.2995453-.6971604 1.9667969-1.0117188.5707125.2695852 1.3861433.6771451 1.96875 1.0117188.5989011.3445295 1.1834431.7102916 1.7558591 1.1015624.438053.30009.87333.6536738 1.3125.9882818l.132813.101562h2.832031l-1.130859-.8925781c-.714874-.5643749-1.447408-1.1516945-2.207032-1.6679688-.829837-.5634594-1.637116-1.0695467-2.419921-1.5175781-.7483717-.4285024-1.5113247-.7411932-2.0371099-.9785156z" fill="#fb7c38"/><path d="m8 5.3515625-.2070312.0917969c-.5257851.2373224-1.2887385.5500131-2.0371094.9785156v.0019531c-.8258956.474509-1.6328116.9792328-2.4199219 1.515625-.7609667.5157664-1.4921136 1.1027416-2.2070313 1.6679688l-1.1289062.8925781h.6328125l.4960937-.392578c.7149177-.5652274 1.4460646-1.1522025 2.2070313-1.6679689.7871103-.5363922 1.5940263-1.041116 2.4199219-1.515625v-.0019531c.7483709-.4285025 1.5113243-.7411932 2.0371094-.9785156l.2070312-.0917969.2050781.0917969c.5257852.2373224 1.2887377.5500132 2.0371099.9785156.782804.4480314 1.590084.9541187 2.419921 1.5175781.759624.5162743 1.492158 1.1035938 2.207032 1.6679689l.498047.392578h.632812l-1.130859-.8925781c-.714874-.5643749-1.447408-1.1516945-2.207032-1.6679688-.829837-.5634594-1.637117-1.0695467-2.419921-1.5175781-.7483722-.4285024-1.5113247-.7411932-2.0371099-.9785156z" fill="#fcfcfc" opacity=".3"/><path d="m7.9980469 6.796875c-.6672516.3145584-1.3231457.6513048-1.9667969 1.0117188-.5984102.3447101-1.184631.7105525-1.7558594 1.1015624-.4386569.2999696-.8724468.6519002-1.3105468.9863282l-.1347657.1035156h-2.1972656l-.6328125.5h2.8300781l.1347657-.103516c.4381-.334428.8718899-.6863582 1.3105468-.9863278.5712284-.3910099 1.1574492-.7568524 1.7558594-1.1015624.6436512-.3604141 1.2995453-.6971604 1.9667969-1.0117188.5707125.2695852 1.3861433.677145 1.96875 1.0117188.5989011.3445295 1.1834431.7102917 1.7558591 1.1015624.438053.3000901.87333.6536728 1.3125.9882818l.132813.101562h2.832031l-.632812-.5h-2.199219l-.132813-.1015625c-.43917-.334608-.874447-.6881912-1.3125-.9882813-.572416-.3912707-1.156958-.7570329-1.7558591-1.1015624-.5826067-.3345737-1.3980375-.7421336-1.96875-1.0117188z" opacity=".2"/></svg>

<?xml version="1.0" encoding="UTF-8" standalone="no"?>
<svg
   xmlns:dc="http://purl.org/dc/elements/1.1/"
   xmlns:cc="http://creativecommons.org/ns#"
   xmlns:rdf="http://www.w3.org/1999/02/22-rdf-syntax-ns#"
   xmlns:svg="http://www.w3.org/2000/svg"
   xmlns="http://www.w3.org/2000/svg"
   xmlns:sodipodi="http://sodipodi.sourceforge.net/DTD/sodipodi-0.dtd"
   xmlns:inkscape="http://www.inkscape.org/namespaces/inkscape"
   width="16"
   height="16"
   version="1.1"
   id="svg4"
   sodipodi:docname="go-up.svg"
   inkscape:version="0.92.4 (5da689c313, 2019-01-14)">
  <metadata
     id="metadata10">
    <rdf:RDF>
      <cc:Work
         rdf:about="">
        <dc:format>image/svg+xml</dc:format>
        <dc:type
           rdf:resource="http://purl.org/dc/dcmitype/StillImage" />
      </cc:Work>
    </rdf:RDF>
  </metadata>
  <defs
     id="defs8" />
  <sodipodi:namedview
     pagecolor="#ffffff"
     bordercolor="#666666"
     borderopacity="1"
     objecttolerance="10"
     gridtolerance="10"
     guidetolerance="10"
     inkscape:pageopacity="0"
     inkscape:pageshadow="2"
     inkscape:window-width="1920"
     inkscape:window-height="1016"
     id="namedview6"
     showgrid="true"
     inkscape:zoom="52.4375"
     inkscape:cx="8"
     inkscape:cy="8"
     inkscape:window-x="0"
     inkscape:window-y="27"
     inkscape:window-maximized="1"
     inkscape:current-layer="svg4">
    <inkscape:grid
       type="xygrid"
       id="grid817" />
  </sodipodi:namedview>
  <path
     style="color:#000000;font-style:normal;font-variant:normal;font-weight:normal;font-stretch:normal;font-size:medium;line-height:normal;font-family:sans-serif;font-variant-ligatures:normal;font-variant-position:normal;font-variant-caps:normal;font-variant-numeric:normal;font-variant-alternates:normal;font-feature-settings:normal;text-indent:0;text-align:start;text-decoration:none;text-decoration-line:none;text-decoration-style:solid;text-decoration-color:#000000;letter-spacing:normal;word-spacing:normal;text-transform:none;writing-mode:lr-tb;direction:ltr;text-orientation:mixed;dominant-baseline:auto;baseline-shift:baseline;text-anchor:start;white-space:normal;shape-padding:0;clip-rule:nonzero;display:inline;overflow:visible;visibility:visible;opacity:1;isolation:auto;mix-blend-mode:normal;color-interpolation:sRGB;color-interpolation-filters:linearRGB;solid-color:#000000;solid-opacity:1;vector-effect:none;fill:#fb7c38;fill-opacity:1;fill-rule:nonzero;stroke:none;stroke-width:1.00027573;stroke-linecap:butt;stroke-linejoin:miter;stroke-miterlimit:4;stroke-dasharray:none;stroke-dashoffset:0;stroke-opacity:1;color-rendering:auto;image-rendering:auto;shape-rendering:auto;text-rendering:auto;enable-background:accumulate"
     d="M 8,5.3515625 7.7929688,5.4433594 C 7.2671837,5.6806818 6.5042303,5.9933725 5.7558594,6.421875 v 0.00195 C 4.9299638,6.898334 4.1230478,7.4030609 3.3359375,7.9394531 2.5749708,8.4552195 1.8438238,9.0421947 1.1289062,9.6074219 L 0,10.5 H 2.8300781 L 2.9648438,10.396484 C 3.4029439,10.062056 3.8367337,9.7101258 4.2753906,9.4101562 4.846619,9.0191463 5.4328398,8.6533039 6.03125,8.3085938 6.6749012,7.9481798 7.3307953,7.6114334 7.9980469,7.296875 c 0.5707125,0.2695852 1.3861433,0.6771451 1.96875,1.0117188 0.5989011,0.3445295 1.1834431,0.7102916 1.7558591,1.1015624 0.438053,0.30009 0.87333,0.6536738 1.3125,0.9882818 L 13.167969,10.5 H 16 L 14.869141,9.6074219 C 14.154267,9.043047 13.421733,8.4557274 12.662109,7.9394531 11.832272,7.3759937 11.024993,6.8699064 10.242188,6.421875 9.4938163,5.9933726 8.7308633,5.6806818 8.2050781,5.4433594 Z"
     id="path2"
     inkscape:connector-curvature="0" />
  <path
     style="color:#000000;font-style:normal;font-variant:normal;font-weight:normal;font-stretch:normal;font-size:medium;line-height:normal;font-family:sans-serif;font-variant-ligatures:normal;font-variant-position:normal;font-variant-caps:normal;font-variant-numeric:normal;font-variant-alternates:normal;font-feature-settings:normal;text-indent:0;text-align:start;text-decoration:none;text-decoration-line:none;text-decoration-style:solid;text-decoration-color:#000000;letter-spacing:normal;word-spacing:normal;text-transform:none;writing-mode:lr-tb;direction:ltr;text-orientation:mixed;dominant-baseline:auto;baseline-shift:baseline;text-anchor:start;white-space:normal;shape-padding:0;clip-rule:nonzero;display:inline;overflow:visible;visibility:visible;opacity:0.3;isolation:auto;mix-blend-mode:normal;color-interpolation:sRGB;color-interpolation-filters:linearRGB;solid-color:#000000;solid-opacity:1;vector-effect:none;fill:#fcfcfc;fill-opacity:1;fill-rule:nonzero;stroke:none;stroke-width:1.00027573;stroke-linecap:butt;stroke-linejoin:miter;stroke-miterlimit:4;stroke-dasharray:none;stroke-dashoffset:0;stroke-opacity:1;color-rendering:auto;image-rendering:auto;shape-rendering:auto;text-rendering:auto;enable-background:accumulate"
     d="M 8 5.3515625 L 7.7929688 5.4433594 C 7.2671837 5.6806818 6.5042303 5.9933725 5.7558594 6.421875 L 5.7558594 6.4238281 C 4.9299638 6.8983371 4.1230478 7.4030609 3.3359375 7.9394531 C 2.5749708 8.4552195 1.8438239 9.0421947 1.1289062 9.6074219 L 0 10.5 L 0.6328125 10.5 L 1.1289062 10.107422 C 1.8438239 9.5421946 2.5749708 8.9552195 3.3359375 8.4394531 C 4.1230478 7.9030609 4.9299638 7.3983371 5.7558594 6.9238281 L 5.7558594 6.921875 C 6.5042303 6.4933725 7.2671837 6.1806818 7.7929688 5.9433594 L 8 5.8515625 L 8.2050781 5.9433594 C 8.7308633 6.1806818 9.4938158 6.4933726 10.242188 6.921875 C 11.024992 7.3699064 11.832272 7.8759937 12.662109 8.4394531 C 13.421733 8.9557274 14.154267 9.5430469 14.869141 10.107422 L 15.367188 10.5 L 16 10.5 L 14.869141 9.6074219 C 14.154267 9.043047 13.421733 8.4557274 12.662109 7.9394531 C 11.832272 7.3759937 11.024992 6.8699064 10.242188 6.421875 C 9.4938158 5.9933726 8.7308633 5.6806818 8.2050781 5.4433594 L 8 5.3515625 z "
     id="path825" />
  <path
     style="color:#000000;font-style:normal;font-variant:normal;font-weight:normal;font-stretch:normal;font-size:medium;line-height:normal;font-family:sans-serif;font-variant-ligatures:normal;font-variant-position:normal;font-variant-caps:normal;font-variant-numeric:normal;font-variant-alternates:normal;font-feature-settings:normal;text-indent:0;text-align:start;text-decoration:none;text-decoration-line:none;text-decoration-style:solid;text-decoration-color:#000000;letter-spacing:normal;word-spacing:normal;text-transform:none;writing-mode:lr-tb;direction:ltr;text-orientation:mixed;dominant-baseline:auto;baseline-shift:baseline;text-anchor:start;white-space:normal;shape-padding:0;clip-rule:nonzero;display:inline;overflow:visible;visibility:visible;opacity:0.2;isolation:auto;mix-blend-mode:normal;color-interpolation:sRGB;color-interpolation-filters:linearRGB;solid-color:#000000;solid-opacity:1;vector-effect:none;fill:#000000;fill-opacity:1;fill-rule:nonzero;stroke:none;stroke-width:1.00027573;stroke-linecap:butt;stroke-linejoin:miter;stroke-miterlimit:4;stroke-dasharray:none;stroke-dashoffset:0;stroke-opacity:1;color-rendering:auto;image-rendering:auto;shape-rendering:auto;text-rendering:auto;enable-background:accumulate"
     d="M 7.9980469 6.796875 C 7.3307953 7.1114334 6.6749012 7.4481798 6.03125 7.8085938 C 5.4328398 8.1533039 4.846619 8.5191463 4.2753906 8.9101562 C 3.8367337 9.2101258 3.4029438 9.5620564 2.9648438 9.8964844 L 2.8300781 10 L 0.6328125 10 L 0 10.5 L 2.8300781 10.5 L 2.9648438 10.396484 C 3.4029438 10.062056 3.8367337 9.7101258 4.2753906 9.4101562 C 4.846619 9.0191463 5.4328398 8.6533038 6.03125 8.3085938 C 6.6749012 7.9481797 7.3307953 7.6114334 7.9980469 7.296875 C 8.5687594 7.5664602 9.3841902 7.97402 9.9667969 8.3085938 C 10.565698 8.6531233 11.15024 9.0188855 11.722656 9.4101562 C 12.160709 9.7102463 12.595986 10.063829 13.035156 10.398438 L 13.167969 10.5 L 16 10.5 L 15.367188 10 L 13.167969 10 L 13.035156 9.8984375 C 12.595986 9.5638295 12.160709 9.2102463 11.722656 8.9101562 C 11.15024 8.5188855 10.565698 8.1531233 9.9667969 7.8085938 C 9.3841902 7.4740201 8.5687594 7.0664602 7.9980469 6.796875 z "
     id="path830" />
</svg>
